X:3
%
T:New Christmas
M:C
L:1/8
R:Reel
S:Surenne - Dance Music of Scotland, p. 26  (1852)
Z:AK/Fiddler's Companion
K:G
B | GBdg edcB | g2 (3bag aAAB | GBdg edcB | cAdB GGGB |
GBdg edcB | g2 (2bag aAAB | GBdg edcB | cAdB GG G ||
d | (3BAG dG eGdG | (3BAG dB eAAd | (3BAG dG eGdG | egfa gGGd |
(3BAG dG eGdG | (3BAG dB eAAd | (3BAG dG eGdG | (3efg (3fga gGG ||

